communes/4066.svg

<?xml version="1.0" encoding="UTF-8"?>
<!DOCTYPE svg  PUBLIC '-//W3C//DTD SVG 1.0//EN'  'http://www.w3.org/TR/2001/REC-SVG-20010904/DTD/svg10.dtd'>
<svg width="687" height="768" version="1.0" viewBox="-2.3812 -2.3812 84.138 94.038" xmlns="http://www.w3.org/2000/svg">
<defs>
<clipPath id="b">
<path d="m354.48 310.32h63.71v-71.63h-63.71v71.63z"/>
</clipPath>
<clipPath id="a">
<path d="m354.48 310.32h63.71v-71.63h-63.71v71.63z"/>
</clipPath>
</defs>
<g transform="translate(-335.31 -487.72)">
<g transform="matrix(1.25 0 0 1.25 -107.92 189.24)" clip-path="url(#b)">
<path d="m354.59 238.79h63.5v39.68 1.63l-0.17 1.61-0.17 1.57-0.28 1.57-0.39 1.57-0.4 1.51-0.5 1.46-0.56 1.45-0.67 1.4-0.67 1.34-0.78 1.34-0.79 1.29-0.89 1.23-0.96 1.23-1.01 1.13-1.05 1.12-1.07 1.06-1.18 0.95-1.17 0.95-1.29 0.9-1.29 0.84-1.29 0.73-1.4 0.72-1.4 0.62-1.45 0.55-1.46 0.51-1.51 0.45-1.52 0.33-1.56 0.28-1.62 0.23-1.57 0.11-1.68 0.06-1.63-0.06-1.62-0.11-1.57-0.23-1.56-0.28-1.52-0.33-1.51-0.45-1.51-0.51-1.4-0.55-1.4-0.62-1.4-0.72-1.34-0.73-1.29-0.84-1.23-0.9-2.36-1.9-1.05-1.06-1.07-1.12-1.01-1.13-0.95-1.23-0.9-1.23-0.79-1.29-0.78-1.34-0.72-1.34-0.62-1.4-0.56-1.45-0.5-1.46-0.45-1.51-0.34-1.57-0.28-1.57-0.22-1.57-0.12-1.61-0.05-1.63v-39.68z"/>
</g>
<g transform="matrix(1.25 0 0 1.25 -107.92 189.24)" clip-path="url(#a)" fill-rule="evenodd">
<path d="m386.34 268.79v0l0.5-1.18 0.96-2.57 1.4-3.97v0l1.28 0.1 1.24 0.18v0l3.69 0.45v0l0.73 0.11h0.72l0.73 0.05 0.74 0.11v0l-0.06-0.11v0l-2.64-2.75-2.63-2.79v0l-0.73-0.78v0l0.18-0.29v0l0.21-0.16v0l1.97-2.35v0l0.61-0.68 0.62-0.67v0l1.18-1.39 0.55-0.73 0.51-0.73v0h-0.51l-0.44 0.11-1.68 0.23v0l-5.77 0.95v0l-0.84-2.3-0.79-2.29v0l-0.72-1.79v0l-0.62-1.57v0l-0.16-0.39-0.18-0.4v0l-0.11-0.05v0l-0.33 0.78-0.34 0.79v0l-1.4 3.64-1.39 3.69v0h-0.4l-0.78-0.11-2.02-0.34-3.14-0.56v0h-0.27v0l-0.23-0.05v0l-1.79-0.23v0l0.28 0.28 0.22 0.28v0l0.51 0.51 0.44 0.61v0l0.23 0.23 0.23 0.16v0l1.5 1.85v0l1.01 1.06 0.96 1.18v0h0.05v0l0.05 0.11 0.12 0.17 0.22 0.22v0l-0.22 0.28v0l-4.65 5.48v0l-0.34 0.29v0l-0.56 0.61v0h0.5l0.52-0.06v0l1.22-0.16 1.18-0.17v0l5.48-0.79v0h0.4v0l0.73 2.13 0.73 2.08v0l0.39 1.23 0.45 1.22v0l0.27 0.68 0.23 0.56v0zm-7.45 7.67v0h-6.83l-5.2 0.05-3.43-0.05v0l-0.05-6.5v0h-3.64l-3.75-0.05v-29.72h60.69v29.66 0l-6.99 0.06v0l-0.05 3.97-0.06 2.47v0h-5.94l-5.1 0.05h-4.41v0-3.42l-0.06-1.84-0.06-1.12v0h-7.56l-7.56-0.06v0 3.02 3.48 0z" fill="#f00000" stroke="#f00000" stroke-linecap="round" stroke-linejoin="round" stroke-miterlimit="10" stroke-width=".12"/>
<path d="m371.78 305.05v-1.95l14.22-0.12v5.82l-1.9-0.11-1.85-0.16-1.84-0.34-1.86-0.39-1.73-0.56-1.74-0.62-1.68-0.73-1.62-0.84z" fill="#fff"/>
<path d="m386.68 308.8v-2.96-2.86l7.56-0.05h7.61v0.73 0.89l-1.68 0.96-1.79 0.78-1.85 0.72-1.85 0.62-1.96 0.51-0.95 0.16-1 0.17-1.02 0.11-1 0.11-1.01 0.06-1.06 0.05z" fill="#fff"/>
<path d="m368.76 303.15 2.41-0.05v1.62l-1.24-0.78-1.17-0.79z" fill="#fff"/>
<path d="m402.52 304.16-0.06-1.23 0.84-0.06 0.96 0.06-0.84 0.62-0.9 0.61z" fill="#fff"/>
<path d="m378.89 302.26-11.08 0.16-0.95-0.78-0.96-0.84-0.95-0.84-0.84-0.95-0.05-1.68v-0.39l0.05-0.39 9.35-0.06h2.75 2.68v3.81l0.06 0.89v0.84l-0.06 0.23z" fill="#fff"/>
<path d="m379.62 302.26-0.05-0.56v-0.56-3.02l-0.06-0.84v-0.39l0.06-0.4h0.89 0.89 6.22 6.22v5.77h-14.17z" fill="#fff"/>
<path d="m394.52 302.26-0.07-2.46-0.05-2.52v-0.39l0.05-0.4 0.23-0.05h7.06 7.06v2.41l-0.73 0.78-0.79 0.78-0.84 0.78-0.84 0.73-0.45 0.06-0.39 0.16-10.24 0.12z" fill="#fff"/>
<path d="m362.04 296.55h1.34l0.05 1.57v0.16l-0.72-0.84-0.67-0.89z" fill="#fff"/>
<path d="m409.46 298.12v-1.68h1.29l-0.61 0.84-0.68 0.84z" fill="#fff"/>
<path d="m358.29 289.94h6.5 6.38v2.91 2.97h-9.63l-0.96-1.4-0.84-1.4-0.72-1.51-0.73-1.57z" fill="#fff"/>
<path d="m371.78 295.82v-5.88h7.11l7.11-0.05v5.93h-14.22z" fill="#fff"/>
<path d="m386.68 295.82-0.06-2.97v-1.5l0.06-1.46 7.56-0.06h7.61l-0.06 2.97v2.96h-7.55l-7.56 0.06z" fill="#fff"/>
<path d="m402.52 295.82-0.06-0.78v-3.98-1.23l7.9-0.05 4.09 0.05-0.68 1.57-0.78 1.51-0.84 1.46-0.89 1.39-8.74 0.06z" fill="#fff"/>
<path d="m378.78 289.21-7.5 0.06h-3.7-3.75l-0.06-1.45v-1.4l0.06-2.91h14.95l0.05 1v2.36l-0.05 2.34z" fill="#fff"/>
<path d="m363.16 289.27h-2.52l-2.63-0.06-0.51-1.34-0.39-1.39-0.34-1.46-0.27-1.4 6.66-0.06 0.06 0.23v2.74l-0.06 2.74z" fill="#fff"/>
<path d="m379.45 289.21v-2.85-2.85l7.17-0.06h7.17v2.85 2.86l-7.17 0.05h-7.17z" fill="#fff"/>
<path d="m394.45 289.16-0.05-0.95v-3.13l0.05-1.35-0.05-0.28h7.45l7.45-0.06 0.05 2.86-0.05 2.8-7.4 0.11h-7.45z" fill="#fff"/>
<path d="m410.02 289.1v-4.36l-0.06-1.23 0.68-0.06 0.62-0.06h1.34 1.74 1.96l-0.28 1.46-0.34 1.45-0.45 1.41-0.45 1.39h-2.46-2.3z" fill="#fff"/>
<path d="m371.17 282.83-5.04 0.06h-6.45l-3.35-0.06-0.12-1.12-0.11-1.11-0.05-1.12-0.06-1.18v-0.95l7.62-0.05 7.56-0.06 0.05 2.8-0.05 2.79z" fill="#fff"/>
<path d="m371.83 282.83v-5.59l8.68-0.06h2.69 2.69l0.06 0.56-0.06 5.09h-14.06z" fill="#fff"/>
<path d="m386.62 282.83-0.05-2.79v-1.46-1.4h7.61l7.61-0.05v2.85l-0.05 2.85h-15.12z" fill="#fff"/>
<path d="m402.41 282.83v-2.85-2.85h7.11 7.16v1.17 1.18l-0.05 1.12-0.11 1.11-0.16 1.12h-13.95z" fill="#fff"/>
<path d="m362.71 276.68-0.33 0.05-3.15-0.05h-3.24v-6.1h6.78l0.05 3.36v1.4l-0.11 1.34z" fill="#fff"/>
<path d="m393.29 276.51-3.43 0.06-3.47 0.05h-3.41l-3.41-0.11v-6.05h13.72l0.05 0.23 0.06 3.02-0.06 1.85v0.61l-0.05 0.34z" fill="#fff"/>
<path d="m416.68 276.51-3.91-0.05-2.47-0.06v-3.42l-0.05-2.52h6.43v6.05z" fill="#fff"/>
<path d="m386.17 266.66v0l0.11-0.06v0l1.12-3.52 1.07-3.47v0l2.63 0.44 2.69 0.51v0l1.62 0.28v0l0.73 0.17v0l0.28-0.06v0l-0.28-0.28-0.34-0.33v0l-0.84-0.95-0.83-0.9v0l-0.29-0.28v0l-1.85-1.91v0l-0.56-0.61v0l-0.39-0.45v0l-0.05-0.11v0l0.11-0.06v0l0.22-0.27 0.29-0.23v0l0.11-0.16v0l0.5-0.51v0l0.67-0.73v0l1.74-1.85 1.68-1.84v0h-0.39v0l-4.31 0.73v0l-1.41 0.28-1.4 0.22v0l-0.11-0.28v0l-0.05-0.39v0l-0.34-0.9v0l-0.73-2.29-0.78-2.19v0l-0.56-1.56v0l-1.96 5.09v0l-0.62 1.63v0l-0.28 0.78v0l-0.17 0.28v0l-0.22 0.05v0l-0.16-0.11v0l-1.36-0.28-2.07-0.39-2.91-0.5v0h-0.22v0l3.75 4.03v0l0.34 0.44 0.39 0.45v0l0.34 0.28v0l0.06 0.17v0l-0.34 0.44-0.39 0.45v0l-0.18 0.28v0l-2.68 3.14v0l-0.73 0.84-0.67 0.84v0h0.22v0l4.87-0.9v0l1.68-0.28v0l0.68-0.16v0h0.22v0l1.18 3.52 1.17 3.47v0z" fill="#fcdb00" stroke="#fcdb00" stroke-linecap="round" stroke-linejoin="round" stroke-miterlimit="10" stroke-width=".12"/>
</g>
</g>
</svg>

<?xml version="1.0" encoding="UTF-8" standalone="no"?>
<!DOCTYPE svg PUBLIC "-//W3C//DTD SVG 1.0//EN" "http://www.w3.org/TR/2001/REC-SVG-20010904/DTD/svg10.dtd">
<!-- Created with Inkscape (http://www.inkscape.org/) by Marsupilami -->
<svg
   xmlns:svg="http://www.w3.org/2000/svg"
   xmlns="http://www.w3.org/2000/svg"
   version="1.0"
   width="687"
   height="768"
   viewBox="-2.38125 -2.38125 84.1375 94.037502"
   id="svg7206">
  <defs
     id="defs7208">
    <clipPath
       id="clipPath5197">
      <path
         d="M 354.48,310.32 L 418.19,310.32 L 418.19,238.69 L 354.48,238.69 L 354.48,310.32 z"
         id="path5199" />
    </clipPath>
    <clipPath
       id="clipPath5209">
      <path
         d="M 354.48,310.32 L 418.19,310.32 L 418.19,238.69 L 354.48,238.69 L 354.48,310.32 z"
         id="path5211" />
    </clipPath>
  </defs>
  <g
     transform="translate(-335.3125,-487.72468)"
     id="layer1">
    <g
       transform="matrix(1.25,0,0,1.25,-107.925,189.23718)"
       clip-path="url(#clipPath5197)"
       id="g5195">
      <g
         id="g5201">
        <path
           d="M 354.59,238.79 L 418.09,238.79 L 418.09,278.47 L 418.09,278.47 L 418.09,280.1 L 417.92,281.71 L 417.75,283.28 L 417.47,284.85 L 417.08,286.42 L 416.68,287.93 L 416.18,289.39 L 415.62,290.84 L 414.95,292.24 L 414.28,293.58 L 413.5,294.92 L 412.71,296.21 L 411.82,297.44 L 410.86,298.67 L 409.85,299.8 L 408.8,300.92 L 407.73,301.98 L 406.55,302.93 L 405.38,303.88 L 404.09,304.78 L 402.8,305.62 L 401.51,306.35 L 400.11,307.07 L 398.71,307.69 L 397.26,308.24 L 395.8,308.75 L 394.29,309.2 L 392.77,309.53 L 391.21,309.81 L 389.59,310.04 L 388.02,310.15 L 386.34,310.21 L 386.34,310.21 L 384.71,310.15 L 383.09,310.04 L 381.52,309.81 L 379.96,309.53 L 378.44,309.2 L 376.93,308.75 L 375.42,308.24 L 374.02,307.69 L 372.62,307.07 L 371.22,306.35 L 369.88,305.62 L 368.59,304.78 L 367.36,303.88 L 366.18,302.93 L 365,301.98 L 363.95,300.92 L 362.88,299.8 L 361.87,298.67 L 360.92,297.44 L 360.02,296.21 L 359.23,294.92 L 358.45,293.58 L 357.73,292.24 L 357.11,290.84 L 356.55,289.39 L 356.05,287.93 L 355.6,286.42 L 355.26,284.85 L 354.98,283.28 L 354.76,281.71 L 354.64,280.1 L 354.59,278.47 L 354.59,238.79 z"
           id="path5203"
           style="fill:#000000;fill-opacity:1;fill-rule:nonzero;stroke:none" />
      </g>
    </g>
    <g
       transform="matrix(1.25,0,0,1.25,-107.925,189.23718)"
       clip-path="url(#clipPath5209)"
       id="g5207">
      <path
         d="M 386.34,268.79 L 386.34,268.79 L 386.84,267.61 L 387.8,265.04 L 389.2,261.07 L 389.2,261.07 L 390.48,261.17 L 391.72,261.35 L 391.72,261.35 L 395.41,261.8 L 395.41,261.8 L 396.14,261.91 L 396.86,261.91 L 397.59,261.96 L 398.33,262.07 L 398.33,262.07 L 398.27,261.96 L 398.27,261.96 L 395.63,259.21 L 393,256.42 L 393,256.42 L 392.27,255.64 L 392.27,255.64 L 392.45,255.35 L 392.45,255.35 L 392.66,255.19 L 392.66,255.19 L 394.63,252.84 L 394.63,252.84 L 395.24,252.16 L 395.86,251.49 L 395.86,251.49 L 397.04,250.1 L 397.59,249.37 L 398.1,248.64 L 398.1,248.64 L 397.59,248.64 L 397.15,248.75 L 395.47,248.98 L 395.47,248.98 L 389.7,249.93 L 389.7,249.93 L 388.86,247.63 L 388.07,245.34 L 388.07,245.34 L 387.35,243.55 L 387.35,243.55 L 386.73,241.98 L 386.73,241.98 L 386.57,241.59 L 386.39,241.19 L 386.39,241.19 L 386.28,241.14 L 386.28,241.14 L 385.95,241.92 L 385.61,242.71 L 385.61,242.71 L 384.21,246.35 L 382.82,250.04 L 382.82,250.04 L 382.42,250.04 L 381.64,249.93 L 379.62,249.59 L 376.48,249.03 L 376.48,249.03 L 376.21,249.03 L 376.21,249.03 L 375.98,248.98 L 375.98,248.98 L 374.19,248.75 L 374.19,248.75 L 374.47,249.03 L 374.69,249.31 L 374.69,249.31 L 375.2,249.82 L 375.64,250.43 L 375.64,250.43 L 375.87,250.66 L 376.1,250.82 L 376.1,250.82 L 377.6,252.67 L 377.6,252.67 L 378.61,253.73 L 379.57,254.91 L 379.57,254.91 L 379.62,254.91 L 379.62,254.91 L 379.67,255.02 L 379.79,255.19 L 380.01,255.41 L 380.01,255.41 L 379.79,255.69 L 379.79,255.69 L 375.14,261.17 L 375.14,261.17 L 374.8,261.46 L 374.8,261.46 L 374.24,262.07 L 374.24,262.07 L 374.74,262.07 L 375.26,262.01 L 375.26,262.01 L 376.48,261.85 L 377.66,261.68 L 377.66,261.68 L 383.14,260.89 L 383.14,260.89 L 383.54,260.89 L 383.54,260.89 L 384.27,263.02 L 385,265.1 L 385,265.1 L 385.39,266.33 L 385.84,267.55 L 385.84,267.55 L 386.11,268.23 L 386.34,268.79 L 386.34,268.79 z M 378.89,276.46 L 378.89,276.46 L 372.06,276.46 L 366.86,276.51 L 363.43,276.46 L 363.43,276.46 L 363.38,269.96 L 363.38,269.96 L 359.74,269.96 L 355.99,269.91 L 355.99,240.19 L 416.68,240.19 L 416.68,269.85 L 416.68,269.85 L 409.69,269.91 L 409.69,269.91 L 409.64,273.88 L 409.58,276.35 L 409.58,276.35 L 403.64,276.35 L 398.54,276.4 L 394.13,276.4 L 394.13,276.4 L 394.13,272.98 L 394.07,271.14 L 394.01,270.02 L 394.01,270.02 L 386.45,270.02 L 378.89,269.96 L 378.89,269.96 L 378.89,272.98 L 378.89,276.46 L 378.89,276.46 z"
         id="path5213"
         style="fill:#f00000;fill-opacity:1;fill-rule:evenodd;stroke:#f00000;stroke-width:0.12;stroke-linecap:round;stroke-linejoin:round;stroke-miterlimit:10;stroke-dasharray:none;stroke-opacity:1" />
      <path
         d="M 371.78,305.05 L 371.78,303.1 L 371.78,303.1 L 378.89,303.04 L 386,302.98 L 386,308.8 L 386,308.8 L 384.1,308.69 L 382.25,308.53 L 380.41,308.19 L 378.55,307.8 L 376.82,307.24 L 375.08,306.62 L 373.4,305.89 L 371.78,305.05 L 371.78,305.05 z"
         id="path5215"
         style="fill:#ffffff;fill-opacity:1;fill-rule:evenodd;stroke:none" />
      <path
         d="M 386.68,308.8 L 386.68,308.8 L 386.68,305.84 L 386.68,302.98 L 386.68,302.98 L 394.24,302.93 L 401.85,302.93 L 401.85,302.93 L 401.85,303.66 L 401.85,304.55 L 401.85,304.55 L 400.17,305.51 L 398.38,306.29 L 396.53,307.01 L 394.68,307.63 L 392.72,308.14 L 391.77,308.3 L 390.77,308.47 L 389.75,308.58 L 388.75,308.69 L 387.74,308.75 L 386.68,308.8 L 386.68,308.8 z"
         id="path5217"
         style="fill:#ffffff;fill-opacity:1;fill-rule:evenodd;stroke:none" />
      <path
         d="M 368.76,303.15 L 368.76,303.15 L 371.17,303.1 L 371.17,304.72 L 371.17,304.72 L 369.93,303.94 L 368.76,303.15 L 368.76,303.15 z"
         id="path5219"
         style="fill:#ffffff;fill-opacity:1;fill-rule:evenodd;stroke:none" />
      <path
         d="M 402.52,304.16 L 402.52,304.16 L 402.46,302.93 L 402.46,302.93 L 403.3,302.87 L 404.26,302.93 L 404.26,302.93 L 403.42,303.55 L 402.52,304.16 L 402.52,304.16 z"
         id="path5221"
         style="fill:#ffffff;fill-opacity:1;fill-rule:evenodd;stroke:none" />
      <path
         d="M 378.89,302.26 L 378.89,302.26 L 367.81,302.42 L 367.81,302.42 L 366.86,301.64 L 365.9,300.8 L 364.95,299.96 L 364.11,299.01 L 364.06,297.33 L 364.06,297.33 L 364.06,296.94 L 364.11,296.55 L 364.11,296.55 L 373.46,296.49 L 373.46,296.49 L 376.21,296.49 L 378.89,296.49 L 378.89,296.49 L 378.89,300.3 L 378.89,300.3 L 378.95,301.19 L 378.95,302.03 L 378.95,302.03 L 378.89,302.26 L 378.89,302.26 z"
         id="path5223"
         style="fill:#ffffff;fill-opacity:1;fill-rule:evenodd;stroke:none" />
      <path
         d="M 379.62,302.26 L 379.62,302.26 L 379.57,301.7 L 379.57,301.14 L 379.57,298.12 L 379.57,298.12 L 379.51,297.28 L 379.51,296.89 L 379.57,296.49 L 379.57,296.49 L 380.46,296.49 L 381.35,296.49 L 381.35,296.49 L 387.57,296.49 L 393.79,296.49 L 393.79,302.26 L 393.79,302.26 L 379.62,302.26 L 379.62,302.26 z"
         id="path5225"
         style="fill:#ffffff;fill-opacity:1;fill-rule:evenodd;stroke:none" />
      <path
         d="M 394.52,302.26 L 394.52,302.26 L 394.45,299.8 L 394.4,297.28 L 394.4,297.28 L 394.4,296.89 L 394.45,296.49 L 394.45,296.49 L 394.68,296.44 L 394.68,296.44 L 401.74,296.44 L 408.8,296.44 L 408.8,296.44 L 408.8,298.85 L 408.8,298.85 L 408.07,299.63 L 407.28,300.41 L 406.44,301.19 L 405.6,301.92 L 405.6,301.92 L 405.15,301.98 L 405.15,301.98 L 404.76,302.14 L 394.52,302.26 z"
         id="path5227"
         style="fill:#ffffff;fill-opacity:1;fill-rule:evenodd;stroke:none" />
      <path
         d="M 362.04,296.55 L 363.38,296.55 L 363.38,296.55 L 363.43,298.12 L 363.43,298.28 L 363.43,298.28 L 362.71,297.44 L 362.04,296.55 L 362.04,296.55 z"
         id="path5229"
         style="fill:#ffffff;fill-opacity:1;fill-rule:evenodd;stroke:none" />
      <path
         d="M 409.46,298.12 L 409.46,296.44 L 410.75,296.44 L 410.75,296.44 L 410.14,297.28 L 409.46,298.12 L 409.46,298.12 z"
         id="path5231"
         style="fill:#ffffff;fill-opacity:1;fill-rule:evenodd;stroke:none" />
      <path
         d="M 358.29,289.94 L 358.29,289.94 L 364.79,289.94 L 371.17,289.94 L 371.17,289.94 L 371.17,292.85 L 371.17,295.82 L 361.54,295.82 L 361.54,295.82 L 360.58,294.42 L 359.74,293.02 L 359.02,291.51 L 358.29,289.94 L 358.29,289.94 z"
         id="path5233"
         style="fill:#ffffff;fill-opacity:1;fill-rule:evenodd;stroke:none" />
      <path
         d="M 371.78,295.82 L 371.78,289.94 L 371.78,289.94 L 378.89,289.94 L 386,289.89 L 386,295.82 L 371.78,295.82 z"
         id="path5235"
         style="fill:#ffffff;fill-opacity:1;fill-rule:evenodd;stroke:none" />
      <path
         d="M 386.68,295.82 L 386.68,295.82 L 386.62,292.85 L 386.62,291.35 L 386.68,289.89 L 386.68,289.89 L 394.24,289.83 L 401.85,289.83 L 401.85,289.83 L 401.79,292.8 L 401.79,295.76 L 401.79,295.76 L 394.24,295.76 L 386.68,295.82 L 386.68,295.82 z"
         id="path5237"
         style="fill:#ffffff;fill-opacity:1;fill-rule:evenodd;stroke:none" />
      <path
         d="M 402.52,295.82 L 402.52,295.82 L 402.46,295.04 L 402.46,295.04 L 402.46,291.06 L 402.46,291.06 L 402.46,289.83 L 402.46,289.83 L 410.36,289.78 L 410.36,289.78 L 414.45,289.83 L 414.45,289.83 L 413.77,291.4 L 412.99,292.91 L 412.15,294.37 L 411.26,295.76 L 411.26,295.76 L 402.52,295.82 L 402.52,295.82 z"
         id="path5239"
         style="fill:#ffffff;fill-opacity:1;fill-rule:evenodd;stroke:none" />
      <path
         d="M 378.78,289.21 L 378.78,289.21 L 371.28,289.27 L 367.58,289.27 L 363.83,289.27 L 363.83,289.27 L 363.77,287.82 L 363.77,286.42 L 363.83,283.51 L 363.83,283.51 L 378.78,283.51 L 378.78,283.51 L 378.83,284.51 L 378.83,284.51 L 378.83,286.87 L 378.78,289.21 L 378.78,289.21 z"
         id="path5241"
         style="fill:#ffffff;fill-opacity:1;fill-rule:evenodd;stroke:none" />
      <path
         d="M 363.16,289.27 L 363.16,289.27 L 360.64,289.27 L 358.01,289.21 L 358.01,289.21 L 357.5,287.87 L 357.11,286.48 L 356.77,285.02 L 356.5,283.62 L 356.5,283.62 L 363.16,283.56 L 363.16,283.56 L 363.22,283.79 L 363.22,283.79 L 363.22,286.53 L 363.16,289.27 L 363.16,289.27 z"
         id="path5243"
         style="fill:#ffffff;fill-opacity:1;fill-rule:evenodd;stroke:none" />
      <path
         d="M 379.45,289.21 L 379.45,289.21 L 379.45,286.36 L 379.45,283.51 L 379.45,283.51 L 386.62,283.45 L 393.79,283.45 L 393.79,283.45 L 393.79,286.3 L 393.79,289.16 L 393.79,289.16 L 386.62,289.21 L 379.45,289.21 L 379.45,289.21 z"
         id="path5245"
         style="fill:#ffffff;fill-opacity:1;fill-rule:evenodd;stroke:none" />
      <path
         d="M 394.45,289.16 L 394.45,289.16 L 394.4,288.21 L 394.4,288.21 L 394.4,285.08 L 394.4,285.08 L 394.45,283.73 L 394.45,283.73 L 394.4,283.45 L 394.4,283.45 L 401.85,283.45 L 409.3,283.39 L 409.3,283.39 L 409.35,286.25 L 409.3,289.05 L 409.3,289.05 L 401.9,289.16 L 394.45,289.16 L 394.45,289.16 z"
         id="path5247"
         style="fill:#ffffff;fill-opacity:1;fill-rule:evenodd;stroke:none" />
      <path
         d="M 410.02,289.1 L 410.02,289.1 L 410.02,284.74 L 410.02,284.74 L 409.96,283.51 L 409.96,283.51 L 410.64,283.45 L 411.26,283.39 L 412.6,283.39 L 412.6,283.39 L 414.34,283.39 L 416.3,283.39 L 416.3,283.39 L 416.02,284.85 L 415.68,286.3 L 415.23,287.71 L 414.78,289.1 L 414.78,289.1 L 412.32,289.1 L 410.02,289.1 L 410.02,289.1 z"
         id="path5249"
         style="fill:#ffffff;fill-opacity:1;fill-rule:evenodd;stroke:none" />
      <path
         d="M 371.17,282.83 L 371.17,282.83 L 366.13,282.89 L 366.13,282.89 L 359.68,282.89 L 359.68,282.89 L 356.33,282.83 L 356.33,282.83 L 356.21,281.71 L 356.1,280.6 L 356.05,279.48 L 355.99,278.3 L 355.99,277.35 L 355.99,277.35 L 363.61,277.3 L 371.17,277.24 L 371.17,277.24 L 371.22,280.04 L 371.17,282.83 L 371.17,282.83 z"
         id="path5251"
         style="fill:#ffffff;fill-opacity:1;fill-rule:evenodd;stroke:none" />
      <path
         d="M 371.83,282.83 L 371.83,277.24 L 371.83,277.24 L 380.51,277.18 L 380.51,277.18 L 383.2,277.18 L 385.89,277.18 L 385.89,277.18 L 385.95,277.74 L 385.95,277.74 L 385.89,282.83 L 385.89,282.83 L 371.83,282.83 L 371.83,282.83 z"
         id="path5253"
         style="fill:#ffffff;fill-opacity:1;fill-rule:evenodd;stroke:none" />
      <path
         d="M 386.62,282.83 L 386.62,282.83 L 386.57,280.04 L 386.57,278.58 L 386.57,277.18 L 386.57,277.18 L 394.18,277.18 L 401.79,277.13 L 401.79,277.13 L 401.79,279.98 L 401.74,282.83 L 386.62,282.83 z"
         id="path5255"
         style="fill:#ffffff;fill-opacity:1;fill-rule:evenodd;stroke:none" />
      <path
         d="M 402.41,282.83 L 402.41,282.83 L 402.41,279.98 L 402.41,277.13 L 402.41,277.13 L 409.52,277.13 L 416.68,277.13 L 416.68,278.3 L 416.68,278.3 L 416.68,279.48 L 416.63,280.6 L 416.52,281.71 L 416.36,282.83 L 416.36,282.83 L 402.41,282.83 L 402.41,282.83 z"
         id="path5257"
         style="fill:#ffffff;fill-opacity:1;fill-rule:evenodd;stroke:none" />
      <path
         d="M 362.71,276.68 L 362.71,276.68 L 362.38,276.73 L 362.38,276.73 L 359.23,276.68 L 355.99,276.68 L 355.99,270.58 L 362.77,270.58 L 362.77,270.58 L 362.82,273.94 L 362.82,273.94 L 362.82,275.34 L 362.71,276.68 L 362.71,276.68 z"
         id="path5259"
         style="fill:#ffffff;fill-opacity:1;fill-rule:evenodd;stroke:none" />
      <path
         d="M 393.29,276.51 L 393.29,276.51 L 389.86,276.57 L 386.39,276.62 L 382.98,276.62 L 379.57,276.51 L 379.57,270.46 L 379.57,270.46 L 393.29,270.46 L 393.29,270.46 L 393.34,270.69 L 393.34,270.69 L 393.4,273.71 L 393.34,275.56 L 393.34,276.17 L 393.29,276.51 L 393.29,276.51 z"
         id="path5261"
         style="fill:#ffffff;fill-opacity:1;fill-rule:evenodd;stroke:none" />
      <path
         d="M 416.68,276.51 L 416.68,276.51 L 412.77,276.46 L 410.3,276.4 L 410.3,276.4 L 410.3,272.98 L 410.25,270.46 L 416.68,270.46 L 416.68,276.51 z"
         id="path5263"
         style="fill:#ffffff;fill-opacity:1;fill-rule:evenodd;stroke:none" />
      <path
         d="M 386.17,266.66 L 386.17,266.66 L 386.28,266.6 L 386.28,266.6 L 387.4,263.08 L 388.47,259.61 L 388.47,259.61 L 391.1,260.05 L 393.79,260.56 L 393.79,260.56 L 395.41,260.84 L 395.41,260.84 L 396.14,261.01 L 396.14,261.01 L 396.42,260.95 L 396.42,260.95 L 396.14,260.67 L 395.8,260.34 L 395.8,260.34 L 394.96,259.39 L 394.13,258.49 L 394.13,258.49 L 393.84,258.21 L 393.84,258.21 L 391.99,256.3 L 391.99,256.3 L 391.43,255.69 L 391.43,255.69 L 391.04,255.24 L 391.04,255.24 L 390.99,255.13 L 390.99,255.13 L 391.1,255.07 L 391.1,255.07 L 391.32,254.8 L 391.61,254.57 L 391.61,254.57 L 391.72,254.41 L 391.72,254.41 L 392.22,253.9 L 392.22,253.9 L 392.89,253.17 L 392.89,253.17 L 394.63,251.32 L 396.31,249.48 L 396.31,249.48 L 395.92,249.48 L 395.92,249.48 L 391.61,250.21 L 391.61,250.21 L 390.2,250.49 L 388.8,250.71 L 388.8,250.71 L 388.69,250.43 L 388.69,250.43 L 388.64,250.04 L 388.64,250.04 L 388.3,249.14 L 388.3,249.14 L 387.57,246.85 L 386.79,244.66 L 386.79,244.66 L 386.51,243.88 L 386.23,243.1 L 386.23,243.1 L 384.27,248.19 L 384.27,248.19 L 383.65,249.82 L 383.65,249.82 L 383.37,250.6 L 383.37,250.6 L 383.2,250.88 L 383.2,250.88 L 382.98,250.93 L 382.98,250.93 L 382.82,250.82 L 382.82,250.82 L 381.46,250.54 L 379.39,250.15 L 376.48,249.65 L 376.48,249.65 L 376.26,249.65 L 376.26,249.65 L 380.01,253.68 L 380.01,253.68 L 380.35,254.12 L 380.74,254.57 L 380.74,254.57 L 381.08,254.85 L 381.08,254.85 L 381.14,255.02 L 381.14,255.02 L 380.8,255.46 L 380.41,255.91 L 380.41,255.91 L 380.23,256.19 L 380.23,256.19 L 378.89,257.76 L 377.55,259.33 L 377.55,259.33 L 376.82,260.17 L 376.15,261.01 L 376.15,261.01 L 376.37,261.01 L 376.37,261.01 L 381.24,260.11 L 381.24,260.11 L 382.92,259.83 L 382.92,259.83 L 383.6,259.67 L 383.6,259.67 L 383.82,259.67 L 383.82,259.67 L 385,263.19 L 386.17,266.66 L 386.17,266.66 z"
         id="path5265"
         style="fill:#fcdb00;fill-opacity:1;fill-rule:evenodd;stroke:#fcdb00;stroke-width:0.12;stroke-linecap:round;stroke-linejoin:round;stroke-miterlimit:10;stroke-dasharray:none;stroke-opacity:1" />
    </g>
  </g>
</svg>
<!-- version: 20080810, original size: 79.375 89.275002, border: 3% -->
